X:1
T:St. Athanasius, 77.77.77
T:St. Athanasius, 77.77.77
T:Edward John Hopkins, 1872
T:Public Domain Courtesy of the Cyber Hymnal™
C:Edward John Hopkins, 1872
Z:Public Domain
Z:Courtesy of the Cyber Hymnal™
%%score ( 1 2 ) ( 3 4 )
L:1/8
Q:1/4=110
M:4/4
K:Bb
V:1 treble 
V:2 treble 
V:3 bass 
V:4 bass 
V:1
 F2 [FG]2 [EA]2 [DB]2 | [Fd]3 [Ec] [DB]4 | [Ee]2 [Fd]2 [Fc]2 [FB]2 | A3 z G [EF]4 | %4
 [DF]2 [FG]2 [EA]2 [DB]2 | [^Fd]3 [Fc] [GB]4 | [=Ed]2 [Fc]2 F2 [FG]2 | A3 z G F4 | %8
 e3 z e [Fd]2 [FB]2 | d3 z c [GB]4 | G3 z G [CA]2 [CB]2 | [DB]2 [Ec]2 [DB]4 |] %12
V:2
 F2 x6 | x8 | x8 | E2 E2 x5 | x8 | x8 | x4 F2 x2 | F2 (=E2 F4) x | E2 F2 x5 | F2 _A2 x5 | %10
 E2 _D2 x5 | x8 |] %12
V:3
 [B,,D]2 [D,B,]2 [C,F,]2 [B,,F,]2 | [A,,F,]3 [A,,F,] [B,,F,]4 | [B,,G,]2 [B,,F,]2 [E,A,]2 [D,B,]2 | %3
 [C,F,]2 [B,,C]2 [A,,C]4 x | [B,,B,]2 [B,D]2 [F,C]2 [G,B,]2 | [D,A,]3 [D,A,] [G,B,]4 | %6
 [G,B,]2 [A,C]2 [G,=B,]2 [D,B,]2 | C2 z [F,A,]4 x2 | [G,B,]2 [A,C]2 [B,D]2 [F,D]2 x | %9
 [D,B,]2 [B,,D]2 [E,E]4 x | [E,B,]3 [E,B,] [=E,A,]2 [E,G,]2 x | [F,B,]2 [F,A,]2 [B,,B,]4 |] %12
V:4
 x8 | x8 | x8 | x9 | x8 | x8 | x8 | C,3 (B,2 C,) x3 | x9 | x9 | x9 | x8 |] %12

